X: 22
T: Ombrosa Valle
P: AB x 7
K: C major
M: 4/4
L: 1/8
P: A
"C"g4 g2"Dm"f2 | "C"e4 cBcd | "C"e2"G"d2 "Am"c2dc | "G"d4 d2d2 | "G"d3c dcBA | "G"B2G2 d2"F"c2 | 
"Bb"d2"C"e2 "Dm"f2"G"d2 | "C"e4 e4 | "C"g4 g2"Dm"f2 | "C"e4 cBcd | "C"e2"G"d2 "Am"c2dc | "G"d4 d2"F"c2 || 
P: B
"Bb"f2f2 "G"d2d2 | "C"e2e2 "Bb"d2"Dm"f2 | "C"e2e2 "G"d2d2 | "C"e4 e2"F"c2 | "F"c2c2 "G"d2df | "C"e2e2 "Bb"d2"Dm"f2 | \ 
"C"e2dc "G"B2AB |  [1-6 "C"c4 c2c2 :|]  [7 "C"c4 c4 :| 

